X:15004
T:O Little Town of Bethlehem
R:March
C:Trad.= Forest Green
O:England
Z:Paul Hardy's Xmas Tunebook 2019 (see www.paulhardy.net). Creative Commons cc by-nc-sa licenced.
M:4/4
L:1/8
Q:1/4=120
K:G
"D"D2 |"G"G2 G2 "Em"G2 A2 |"Am"BABc "G"d2 B2| "C"c2 BG "D"A2 A2| "G"G6:|
"G"GB |d3 e dc BA |GA Bc d2 D2 |"Em"G2 B2 "A7"A2 G2 |"D"D4 z2|
"D"D2 |"G"G2 G2 "Em"G2 A2 |"Am"BABc "G"d2 B2 |"C"c2 BG "D"A2 A2|"G"G6|]
W:O little town of Bethlehem,
W:How still we see thee lie!
W:Above thy deep and dreamless sleep
W:The silent stars go by.
W:
W:Yet in thy dark streets shineth
W:The everlasting Light;
W:The hopes and fears of all the years
W:Are met in thee to-night.
W:
W:(Phillips Brooks, 1903)

